packages/icons/web/flag_mt_small.svg

<svg width="24" height="24" viewBox="0 0 24 24" fill="none" xmlns="http://www.w3.org/2000/svg">
<path fill-rule="evenodd" clip-rule="evenodd" d="M5.5 6H18.5C19.6046 6 20.5 6.89543 20.5 8V16C20.5 17.1046 19.6046 18 18.5 18H5.5C4.39543 18 3.5 17.1046 3.5 16V8C3.5 6.89543 4.39543 6 5.5 6ZM5.5 6.5C4.67157 6.5 4 7.17157 4 8V16C4 16.8284 4.67157 17.5 5.5 17.5H18.5C19.3284 17.5 20 16.8284 20 16V8C20 7.17157 19.3284 6.5 18.5 6.5H5.5Z" fill="#D8DDE1"/>
<g clip-path="url(#clip0)">
<path fill-rule="evenodd" clip-rule="evenodd" d="M4 7.89522V16.1048C4 16.8756 4.6136 17.5 5.3704 17.5H12V6.5H5.3704C4.6136 6.5 4 7.12522 4 7.89522Z" fill="white"/>
<path fill-rule="evenodd" clip-rule="evenodd" d="M18.6544 6.5H12V17.5H18.6544C19.3984 17.5 20 16.8756 20 16.1048V7.89522C20 7.12522 19.3976 6.5 18.6544 6.5Z" fill="#EE2734"/>
<path fill-rule="evenodd" clip-rule="evenodd" d="M6.96678 8.71141C6.95878 8.61759 6.87077 8.52781 6.77717 8.52053C6.81557 8.53104 6.85717 8.55693 6.89477 8.59494C6.93157 8.63215 6.95717 8.67421 6.96837 8.71141H6.96678ZM7.55718 8.74376V9.31965H6.97317C6.97157 9.32612 6.97077 9.33259 6.96997 9.33987H7.57798V8.72516H6.96997C6.96997 8.73325 6.97158 8.73972 6.97238 8.74619H7.55638L7.55718 8.74376ZM5.36357 9.31965V8.74538H5.94757C5.94757 8.73729 5.94917 8.73163 5.95077 8.72435H5.34277V9.33906H5.95077C5.94919 9.33271 5.94838 9.32619 5.94837 9.31965H5.36437H5.36357ZM6.74437 10.1398H6.17637V9.54935C6.16837 9.54935 6.16277 9.54935 6.15557 9.54693V10.1616H6.76517V9.54693C6.75717 9.54854 6.75157 9.54935 6.74437 9.54935V10.1398ZM6.77637 9.54369C6.86997 9.5356 6.95878 9.44663 6.96678 9.35362C6.95557 9.39001 6.92997 9.43207 6.89317 9.46928C6.85557 9.50972 6.81317 9.53398 6.77717 9.54531L6.77637 9.54369ZM5.95397 9.35281C5.96197 9.44663 6.04997 9.53641 6.14277 9.54369C6.10677 9.53318 6.06517 9.50729 6.02837 9.46928C5.99077 9.43369 5.96437 9.39163 5.95397 9.35443V9.35281ZM6.14357 8.51972C6.04917 8.52781 5.95957 8.61678 5.95157 8.71141C5.96357 8.67501 5.98917 8.63296 6.02677 8.59494C6.06357 8.55693 6.10517 8.53023 6.14197 8.52053L6.14357 8.51972ZM6.17557 7.92362H6.74357V8.51406C6.74917 8.51406 6.75637 8.51568 6.76357 8.51729V7.90259H6.15397V8.51729C6.16197 8.51568 6.16757 8.51487 6.17397 8.51487V7.92443L6.17557 7.92362Z" fill="#FF172D"/>
<path fill-rule="evenodd" clip-rule="evenodd" d="M7.5163 8.7858H6.9603C6.9603 8.74374 6.9483 8.68065 6.8771 8.60786C6.8051 8.53668 6.7555 8.52536 6.7043 8.52293V7.96484H6.2163V8.52778C6.1803 8.53587 6.1203 8.5383 6.0483 8.61028C5.9763 8.68308 5.9651 8.74131 5.9643 8.78823C5.9643 8.78661 5.7771 8.78661 5.4043 8.78823V9.27999H5.9595C5.9595 9.31234 5.9619 9.37381 6.0339 9.4458C6.1059 9.51859 6.1579 9.53315 6.2203 9.5372C6.2187 9.5372 6.2171 9.72646 6.2147 10.1018H6.7027V9.54124C6.7691 9.53639 6.8307 9.50727 6.8867 9.4458C6.9427 9.38352 6.9547 9.33742 6.9547 9.27595C6.9563 9.27595 7.1419 9.27837 7.5147 9.2808V8.78742L7.5163 8.7858Z" fill="#CECCCC"/>
</g>
<defs>
<clipPath id="clip0">
<rect x="4" y="6.5" width="16" height="11" fill="white"/>
</clipPath>
</defs>
</svg>

<svg width="24" height="24" fill="none" xmlns="http://www.w3.org/2000/svg">
    <path fill-rule="evenodd" clip-rule="evenodd" d="M5.5 6h13a2 2 0 012 2v8a2 2 0 01-2 2h-13a2 2 0 01-2-2V8a2 2 0 012-2zm0 .5A1.5 1.5 0 004 8v8a1.5 1.5 0 001.5 1.5h13A1.5 1.5 0 0020 16V8a1.5 1.5 0 00-1.5-1.5h-13z" fill="#D8DDE1"/>
    <g clip-path="url(#clip0)" fill-rule="evenodd" clip-rule="evenodd">
        <path d="M4 7.895v8.21c0 .77.614 1.395 1.37 1.395H12v-11H5.37C4.614 6.5 4 7.125 4 7.895z" fill="#fff"/>
        <path d="M18.654 6.5H12v11h6.654c.744 0 1.346-.624 1.346-1.395v-8.21c0-.77-.602-1.395-1.346-1.395z" fill="#EE2734"/>
        <path d="M6.967 8.711a.221.221 0 00-.19-.19.27.27 0 01.118.074c.037.037.062.08.073.116h-.001zm.59.033v.576h-.584a.152.152 0 00-.003.02h.608v-.615H6.97l.002.021h.584l.001-.002zm-2.193.576v-.575h.584c0-.008.001-.013.003-.02h-.608v.614h.608a.08.08 0 01-.003-.02h-.584zm1.38.82h-.568v-.59c-.008 0-.013 0-.02-.003v.615h.61v-.615a.097.097 0 01-.022.002v.59zm.032-.596a.223.223 0 00.19-.19.298.298 0 01-.073.115.275.275 0 01-.116.076v-.001zm-.822-.191a.221.221 0 00.189.19.277.277 0 01-.115-.074.266.266 0 01-.074-.115v-.001zm.19-.833a.224.224 0 00-.192.191.312.312 0 01.075-.116.266.266 0 01.115-.074l.002-.001zm.032-.596h.568v.59l.02.003v-.614h-.61v.614a.096.096 0 01.02-.002v-.59l.002-.001z" fill="#FF172D"/>
        <path d="M7.516 8.786H6.96c0-.042-.012-.105-.083-.178-.072-.071-.122-.083-.173-.085v-.558h-.488v.563c-.036.008-.096.01-.168.082-.072.073-.083.131-.084.178h-.56v.492h.556c0 .032.002.094.074.166.072.073.124.087.186.091-.001 0-.003.19-.005.565h.488v-.56a.27.27 0 00.184-.096.224.224 0 00.068-.17l.56.005v-.494l.001-.001z" fill="#CECCCC"/>
    </g>
    <defs>
        <clipPath id="clip0">
            <path fill="#fff" d="M4 6.5h16v11H4z"/>
        </clipPath>
    </defs>
</svg>
